gfx/socialFacebook.svg

<svg fill="none" height="24" viewBox="0 0 24 24" width="24" xmlns="http://www.w3.org/2000/svg"><path d="m14.9428 2.00076c.6556.00174 1.3273.00613 1.4947.00727l.118.00085c.1513.00115.5051.00394.9145.00795v5.12792c-.3672-.00398-.7854-.00684-1.0064-.00826-.2318-.00148-.6806-.00415-1.06-.00472-.2701.01286-.4946-.0026-.6142.11969-.1183.12092-.0687.33871-.0687.57836-.001.37806-.0031.78246-.0053 1.13898l2.5217.0566-.6654 4.9137h-1.8506l.0122.9376-.0147 7.1163h-5.59231v-8.0539h-3.12629v-4.93906h3.12618l-.00015-1.42809c.04324-1.74419.51727-2.96875 1.15237-3.8152.8907-1.18725 2.124-1.67972 3.2203-1.74662.0767-.00468.2858-.00824.5672-.0094z" style="fill-rule:evenodd;clip-rule:evenodd;stroke-width:2;stroke-linecap:round;stroke-linejoin:round;stroke:#000"/><path d="m13.7081 12.9391h1.9899l.398-2.93911h-2.3879s.0126-1.53726.0126-2.17294c0-1.17411.3547-1.62287 1.082-1.69093.1105-.01034 1.6673.00034 1.6673.00034v-3.12824s-2.6067-.01853-2.9104 0c-1.5077.092-3.3464 1.23534-3.4333 3.58477-.0136.36756 0 1.00034 0 1.00539v2.40161h-3.1263v2.93911h3.1263v8.0539h3.5944l.0126-6.1109zm2.0251 1.9997-.0125 6.0583c-.0023 1.103-.8971 1.9959-2 1.9959h-3.5944c-1.10458 0-2.00001-.8954-2.00001-2v-6.0539h-1.12629c-1.10457 0-2-.8954-2-2v-2.93911c0-1.10457.89543-2 2-2h1.12629v-.40161c-.00036.00578-.00036.00578-.00283-.15327-.00228-.16337-.00352-.32702-.00315-.48248.00039-.16768.00262-.31571.00735-.44359.11758-3.17769 2.52554-5.33719 5.31014-5.5071.1924-.01175.6864-.013614 1.5684-.01106.2497.00072.5152.00184.7871.00325.2995.00155.5449.00311.6909.00414 1.099.00782 1.9858.90093 1.9858 1.99995v3.12824c0 1.00456-.7404 1.83522-1.7038 1.97824.863.3065 1.4425 1.18724 1.3117 2.1537l-.398 2.9391c-.1327.9801-.9613 1.7142-1.9467 1.7313z" fill="#000"/></svg>

<svg width="24" height="24" viewBox="0 0 24 24" fill="none" xmlns="http://www.w3.org/2000/svg">
<path fill-rule="evenodd" clip-rule="evenodd" d="M14.9428 2.00076C15.5984 2.0025 16.2701 2.00689 16.4375 2.00803L16.5555 2.00888C16.7068 2.01003 17.0606 2.01282 17.47 2.01683V7.14475C17.1028 7.14077 16.6846 7.13791 16.4636 7.13649C16.2318 7.13501 15.783 7.13234 15.4036 7.13177C15.1335 7.14463 14.909 7.12917 14.7894 7.25146C14.6711 7.37238 14.7207 7.59017 14.7207 7.82982C14.7197 8.20788 14.7176 8.61228 14.7154 8.9688L17.2371 9.0254L16.5717 13.9391H14.7211L14.7333 14.8767L14.7186 21.993H9.12629V13.9391H6V9.00004H9.12618L9.12603 7.57195C9.16927 5.82776 9.6433 4.6032 10.2784 3.75675C11.1691 2.5695 12.4024 2.07703 13.4987 2.01013C13.5754 2.00545 13.7845 2.00189 14.0659 2.00073L14.9428 2.00076Z" stroke="black" style="stroke:black;stroke-opacity:1;" stroke-width="2" stroke-linecap="round" stroke-linejoin="round"/>
<path d="M13.7081 12.9391H15.698L16.096 9.99999H13.7081C13.7081 9.99999 13.7207 8.46273 13.7207 7.82705C13.7207 6.65294 14.0754 6.20418 14.8027 6.13612C14.9132 6.12578 16.47 6.13646 16.47 6.13646V3.00822C16.47 3.00822 13.8633 2.98969 13.5596 3.00822C12.0519 3.10022 10.2132 4.24356 10.1263 6.59299C10.1127 6.96055 10.1263 7.59333 10.1263 7.59838V9.99999H7V12.9391H10.1263V20.993H13.7207L13.7333 14.8821L13.7081 12.9391ZM15.7332 14.9388L15.7207 20.9971C15.7184 22.1001 14.8236 22.993 13.7207 22.993H10.1263C9.02172 22.993 8.12629 22.0976 8.12629 20.993V14.9391H7C5.89543 14.9391 5 14.0437 5 12.9391V9.99999C5 8.89542 5.89543 7.99999 7 7.99999H8.12629V7.59838C8.12593 7.60416 8.12593 7.60416 8.12346 7.44511C8.12118 7.28174 8.11994 7.11809 8.12031 6.96263C8.1207 6.79495 8.12293 6.64692 8.12766 6.51904C8.24524 3.34135 10.6532 1.18185 13.4378 1.01194C13.6302 1.00019 14.1242 0.998326 15.0062 1.00088C15.2559 1.0016 15.5214 1.00272 15.7933 1.00413C16.0928 1.00568 16.3382 1.00724 16.4842 1.00827C17.5832 1.01609 18.47 1.9092 18.47 3.00822V6.13646C18.47 7.14102 17.7296 7.97168 16.7662 8.1147C17.6292 8.4212 18.2087 9.30194 18.0779 10.2684L17.6799 13.2075C17.5472 14.1876 16.7186 14.9217 15.7332 14.9388Z" fill="black" style="fill:black;fill-opacity:1;"/>
</svg>
